X:33
T:The Beautiful Goretree
C:Tommy Peoples
Z:Gwen 2022-02-13 d'après l'enregistrement de Carole
M:2/2
Q:1/2=60
R:Reel
K:G
|: D2FA B3d | feed BAFE | D2FA B2dB | AFDF E/F/GFE |
   D2FA f2af | edfe dBAd |1 f2ed BddB | AFEF D2D/E/D :| f2ed BedB | AFEF D2ed |
|: f2ed adfd | def/e/d BdA2 | f2ed adfd | ABBA B2de |
   f2ed adfd | def/e/d BdA2 |1 f2ed BddB | AFEF D2ed :|2 f2ed BedB | AFEF D2dB |
|: ADD/D/D D2FA | BAFA f2af | edfe dBAd | f2ed BAFE |
   D3E FEDF | A2FA f2af | e3d fedB |1 AFEF D2dB :| AFEF D4 ||

